packages/lexical-website/static/img/logo.svg

<svg width="597" height="134" fill="none" xmlns="http://www.w3.org/2000/svg"><path d="M189.512 116h-40.32v-13.776h11.256V14.192H148.52V.416h29.736v101.808h11.256V116Zm75.822-23.016c-.672 6.608-3.92 12.376-9.744 17.304-5.824 4.928-13.832 7.392-24.024 7.392-10.976 0-19.992-3.192-27.048-9.576-7.056-6.496-10.584-16.016-10.584-28.56 0-11.536 3.192-21.168 9.576-28.896 6.496-7.728 15.512-11.592 27.048-11.592 10.416 0 18.648 3.136 24.696 9.408 6.16 6.16 9.296 14 9.408 23.52 0 3.136-.336 6.496-1.008 10.08H212.75c1.008 14.112 7.728 21.168 20.16 21.168 5.824 0 9.968-1.4 12.432-4.2 2.576-2.8 4.256-5.768 5.04-8.904l14.952 2.856Zm-19.152-22.008c.448-4.48-.616-8.68-3.192-12.6-2.464-4.032-6.664-6.048-12.6-6.048-5.376 0-9.464 1.792-12.264 5.376-2.8 3.584-4.536 8.008-5.208 13.272h33.264ZM352.448 116h-36.12v-13.776h7.224l-13.608-15.456-13.44 15.456h6.384V116H269.12v-13.776h10.416l21.84-23.52-23.184-24.36h-8.568V40.568h36.792v13.776h-7.056l12.6 15.12 13.44-15.12h-6.552V40.568H350.6v13.776h-7.896l-21.672 22.68 23.352 25.2h8.064V116Zm15.006-91.056V5.12h18.312v19.824h-18.312ZM397.526 116h-40.32v-13.776h11.256V54.512h-11.928V40.568h29.736v61.656h11.256V116Zm74.591-27.048c-.784 6.72-3.752 13.216-8.904 19.488-5.152 6.16-13.44 9.24-24.864 9.24-10.752 0-19.544-3.248-26.376-9.744-6.72-6.496-10.08-15.96-10.08-28.392 0-12.208 3.472-22.008 10.416-29.4 7.056-7.392 16.24-11.088 27.552-11.088 4.48 0 8.96.56 13.44 1.68 4.48 1.12 8.904 2.968 13.272 5.544l3.024 21.168-14.448 1.512-2.52-12.432a29.58 29.58 0 0 0-13.104-3.024c-12.544 0-18.816 8.4-18.816 25.2 0 16.352 6.44 24.528 19.32 24.528 9.408 0 15.064-5.712 16.968-17.136l15.12 2.856Zm12.566-42.84c5.6-2.688 10.584-4.536 14.952-5.544s9.408-1.512 15.12-1.512c8.4 0 15.288 2.128 20.664 6.384 5.488 4.256 8.232 10.64 8.232 19.152v33.936c0 4.48 1.848 6.72 5.544 6.72 1.008 0 2.296-.224 3.864-.672l.168 9.912c-3.696 2.128-7.728 3.192-12.096 3.192-9.52 0-14.672-4.984-15.456-14.952v-.336c-2.24 3.92-5.432 7.448-9.576 10.584-4.032 3.136-9.072 4.704-15.12 4.704-5.264 0-10.472-1.568-15.624-4.704-5.04-3.248-7.56-8.848-7.56-16.8 0-9.296 3.696-15.4 11.088-18.312 7.392-3.024 15.4-4.536 24.024-4.536 2.128 0 4.312.056 6.552.168 2.24.112 4.312.28 6.216.504v-4.2c0-4.48-.784-8.512-2.352-12.096-1.568-3.584-5.488-5.376-11.76-5.376-2.352 0-4.592.168-6.72.504-2.016.336-3.976 1.008-5.88 2.016l-3.024 11.592-14.448-1.512 3.192-18.816Zm40.992 39.984v-2.688a917.892 917.892 0 0 0-5.88-.672 56.265 56.265 0 0 0-6.216-.336c-4.48 0-8.512.784-12.096 2.352-3.472 1.568-5.208 4.704-5.208 9.408 0 6.832 3.64 10.248 10.92 10.248 4.256 0 8.288-1.512 12.096-4.536 3.808-3.136 5.936-7.728 6.384-13.776ZM596.079 116h-40.32v-13.776h11.256V14.192h-11.928V.416h29.736v101.808h11.256V116Z" fill="#000"/><path fill="#76B6FF" d="M367 5h19v20h-19zM20 57h22v10H20V57Z"/><path d="M47 57h22v10H47V57Z" fill="#000"/><path d="M74 57h9v10h-9V57ZM20 73h36v10H20V73ZM61 73h22v10H61V73Z" fill="#76B6FF"/><path d="M20 89h22v10H20V89Z" fill="#000"/><path d="M47 89h22v10H47V89Z" fill="#76B6FF"/><path d="M74 89h9v10h-9V89Z" fill="#000"/><path d="M0 37h83v10H10v62h73v10H0V37ZM118 37h-15v10h5v62h-5v10h15V37Z" fill="#000"/><path d="M78 32V22h31v10H98v92h11v10H78v-10h10V32H78Z" fill="#000"/></svg>

<svg width="597" height="134" viewBox="0 0 597 134" fill="none" xmlns="http://www.w3.org/2000/svg">
  <path d="M189.512 116H149.192V102.224H160.448V14.192H148.52V0.415996H178.256V102.224H189.512V116ZM265.334 92.984C264.662 99.592 261.414 105.36 255.59 110.288C249.766 115.216 241.758 117.68 231.566 117.68C220.59 117.68 211.574 114.488 204.518 108.104C197.462 101.608 193.934 92.088 193.934 79.544C193.934 68.008 197.126 58.376 203.51 50.648C210.006 42.92 219.022 39.056 230.558 39.056C240.974 39.056 249.206 42.192 255.254 48.464C261.414 54.624 264.55 62.464 264.662 71.984C264.662 75.12 264.326 78.48 263.654 82.064H212.75C213.758 96.176 220.478 103.232 232.91 103.232C238.734 103.232 242.878 101.832 245.342 99.032C247.918 96.232 249.598 93.264 250.382 90.128L265.334 92.984ZM246.182 70.976C246.63 66.496 245.566 62.296 242.99 58.376C240.526 54.344 236.326 52.328 230.39 52.328C225.014 52.328 220.926 54.12 218.126 57.704C215.326 61.288 213.59 65.712 212.918 70.976H246.182ZM352.448 116H316.328V102.224H323.552L309.944 86.768L296.504 102.224H302.888V116H269.12V102.224H279.536L301.376 78.704L278.192 54.344H269.624V40.568H306.416V54.344H299.36L311.96 69.464L325.4 54.344H318.848V40.568H350.6V54.344H342.704L321.032 77.024L344.384 102.224H352.448V116ZM367.454 24.944V5.12H385.766V24.944H367.454ZM397.526 116H357.206V102.224H368.462V54.512H356.534V40.568H386.27V102.224H397.526V116ZM472.117 88.952C471.333 95.672 468.365 102.168 463.213 108.44C458.061 114.6 449.773 117.68 438.349 117.68C427.597 117.68 418.805 114.432 411.973 107.936C405.253 101.44 401.893 91.976 401.893 79.544C401.893 67.336 405.365 57.536 412.309 50.144C419.365 42.752 428.549 39.056 439.861 39.056C444.341 39.056 448.821 39.616 453.301 40.736C457.781 41.856 462.205 43.704 466.573 46.28L469.597 67.448L455.149 68.96L452.629 56.528C448.485 54.512 444.117 53.504 439.525 53.504C426.981 53.504 420.709 61.904 420.709 78.704C420.709 95.056 427.149 103.232 440.029 103.232C449.437 103.232 455.093 97.52 456.997 86.096L472.117 88.952ZM484.683 46.112C490.283 43.424 495.267 41.576 499.635 40.568C504.003 39.56 509.043 39.056 514.755 39.056C523.155 39.056 530.043 41.184 535.419 45.44C540.907 49.696 543.651 56.08 543.651 64.592V98.528C543.651 103.008 545.499 105.248 549.195 105.248C550.203 105.248 551.491 105.024 553.059 104.576L553.227 114.488C549.531 116.616 545.499 117.68 541.131 117.68C531.611 117.68 526.459 112.696 525.675 102.728V102.392C523.435 106.312 520.243 109.84 516.099 112.976C512.067 116.112 507.027 117.68 500.979 117.68C495.715 117.68 490.507 116.112 485.355 112.976C480.315 109.728 477.795 104.128 477.795 96.176C477.795 86.88 481.491 80.776 488.883 77.864C496.275 74.84 504.283 73.328 512.907 73.328C515.035 73.328 517.219 73.384 519.459 73.496C521.699 73.608 523.771 73.776 525.675 74V69.8C525.675 65.32 524.891 61.288 523.323 57.704C521.755 54.12 517.835 52.328 511.563 52.328C509.211 52.328 506.971 52.496 504.843 52.832C502.827 53.168 500.867 53.84 498.963 54.848L495.939 66.44L481.491 64.928L484.683 46.112ZM525.675 86.096V83.408C523.771 83.184 521.811 82.96 519.795 82.736C517.779 82.512 515.707 82.4 513.579 82.4C509.099 82.4 505.067 83.184 501.483 84.752C498.011 86.32 496.275 89.456 496.275 94.16C496.275 100.992 499.915 104.408 507.195 104.408C511.451 104.408 515.483 102.896 519.291 99.872C523.099 96.736 525.227 92.144 525.675 86.096ZM596.079 116H555.759V102.224H567.015V14.192H555.087V0.415996H584.823V102.224H596.079V116Z" fill="#000"/>
  <rect x="367" y="5" width="19" height="20" fill="#76B6FF"/>
  <path d="M20 57H42V67H20V57Z" fill="#76B6FF"/>
  <path d="M47 57H69V67H47V57Z" fill="#000"/>
  <path d="M74 57H83V67H74V57Z" fill="#76B6FF"/>
  <path d="M20 73H56V83H20V73Z" fill="#76B6FF"/>
  <path d="M61 73H83V83H61V73Z" fill="#76B6FF"/>
  <path d="M20 89H42V99H20V89Z" fill="#000"/>
  <path d="M47 89H69V99H47V89Z" fill="#76B6FF"/>
  <path d="M74 89H83V99H74V89Z" fill="#000"/>
  <path d="M0 37H83V47H10V109H83V119H0V37Z" fill="#000"/>
  <path d="M118 37H103V47H108V109H103V119H118V37Z" fill="#000"/>
  <path d="M78 32V22H109V32H98V124H109V134H78V124H88V32H78Z" fill="#000"/>
</svg>
